src/topics/icons/weebly.svg

<svg height="197" preserveAspectRatio="xMidYMid" viewBox="0 0 256 197" width="256" xmlns="http://www.w3.org/2000/svg"><path d="m212.310219 0c-19.972194 0-36.616769 13.2780923-41.722357 33.1498909-9.202366-29.85951486-32.756406-33.12722099-42.583814-33.12722099-9.824169 0-33.3701127 3.26770613-42.5902904 33.12074389-5.1072077-19.8539866-21.7534015-33.12074389-41.7207376-33.12074389-24.5013188 0-43.69302 17.51574689-43.69302 39.87475889 0 9.8873209 2.44349284 17.7813087 5.39543945 26.3440589l33.26647905 94.0752843c11.139024 31.200278 33.8316075 35.858945 46.3664505 35.858945 19.661292 0 34.982915-10.070299 42.972441-27.916379 7.997621 17.927044 23.320864 28.047541 42.97244 28.047541 12.51865 0 35.188564-4.666764 46.384263-35.982011l33.451077-94.3959012.260704-.7788735c.38215-1.2096018.767538-2.3447168 1.131876-3.423157 1.781208-5.2691356 3.79883-11.2426579 3.79883-18.5634207 0-25.0097726-18.373965-43.1635156-43.689781-43.1635156zm15.768544 57.8746703-33.449458 94.3959007c-4.083823 11.420779-10.876701 19.921997-23.656055 19.921997-11.972953 0-19.042727-6.671432-22.574376-18.103546l-20.127645-62.8248074h-.547316l-20.11631 62.8248074c-3.538126 11.433733-10.6095196 17.972384-22.579234 17.972384-12.7825927 0-19.5803283-8.431588-23.6576742-19.852367l-33.1774186-93.8242956c-2.7203896-7.88913-4.0789652-12.7712578-4.0789652-18.4889339 0-8.7052469 8.1627882-15.7588286 19.578709-15.7588286 9.5197445 0 16.31748 6.2763276 18.4937917 15.5224138l22.5727569 74.8366233h.5408394l22.844796-73.1881968c2.997286-10.6046617 8.433208-17.1708403 19.858844-17.1708403 11.41916 0 16.8567 6.5548436 19.84751 17.1595054l22.846415 73.1995317h.53922l22.580853-74.8366233c2.173073-9.2460862 8.96919-15.5450837 18.492173-15.5450837 11.41592 0 19.57547 7.0794902 19.57547 19.0492046 0 4.3493849-1.909131 8.7182011-3.806926 14.7111547z" fill="#3192e7"/></svg>

<?xml version="1.0" encoding="UTF-8" standalone="no"?>
<svg width="256px" height="197px" viewBox="0 0 256 197" version="1.1" xmlns="http://www.w3.org/2000/svg" xmlns:xlink="http://www.w3.org/1999/xlink" preserveAspectRatio="xMidYMid">
    <g>
        <path d="M212.310219,0 C192.338025,0 175.69345,13.2780923 170.587862,33.1498909 C161.385496,3.29037604 137.831456,0.0226699137 128.004048,0.0226699137 C118.179879,0.0226699137 94.6339353,3.29037604 85.4137576,33.1434138 C80.3065499,13.2894272 63.6603561,0.0226699137 43.69302,0.0226699137 C19.1917012,0.0226699137 0,17.5384168 0,39.8974288 C0,49.7847497 2.44349284,57.6787375 5.39543945,66.2414877 L38.6619185,160.316772 C49.8009425,191.51705 72.493526,196.175717 85.028369,196.175717 C104.689661,196.175717 120.011284,186.105418 128.00081,168.259338 C135.998431,186.186382 151.321674,196.306879 170.97325,196.306879 C183.4919,196.306879 206.161814,191.640115 217.357513,160.324868 L250.80859,65.9289668 L251.069294,65.1500933 C251.451444,63.9404915 251.836832,62.8053765 252.20117,61.7269363 C253.982378,56.4578007 256,50.4842784 256,43.1635156 C256,18.153743 237.626035,0 212.310219,0 L212.310219,0 Z M228.078763,57.8746703 L194.629305,152.270571 C190.545482,163.69135 183.752604,172.192568 170.97325,172.192568 C159.000297,172.192568 151.930523,165.521136 148.398874,154.089022 L128.271229,91.2642146 L127.723913,91.2642146 L107.607603,154.089022 C104.069477,165.522755 96.9980834,172.061406 85.028369,172.061406 C72.2457763,172.061406 65.4480407,163.629818 61.3706948,152.209039 L28.1932762,58.3847434 C25.4728866,50.4956134 24.114311,45.6134856 24.114311,39.8958095 C24.114311,31.1905626 32.2770992,24.1369809 43.69302,24.1369809 C53.2127645,24.1369809 60.0105,30.4133085 62.1868117,39.6593947 L84.7595686,114.496018 L85.300408,114.496018 L108.145204,41.3078212 C111.14249,30.7031595 116.578412,24.1369809 128.004048,24.1369809 C139.423208,24.1369809 144.860748,30.6918245 147.851558,41.2964863 L170.697973,114.496018 L171.237193,114.496018 L193.818046,39.6593947 C195.991119,30.4133085 202.787236,24.114311 212.310219,24.114311 C223.726139,24.114311 231.885689,31.1938012 231.885689,43.1635156 C231.885689,47.5129005 229.976558,51.8817167 228.078763,57.8746703 L228.078763,57.8746703 Z" fill="#3192E7"></path>
    </g>
</svg>
